!!!OTL: WIE MACHENS DENN DIE SCHNEIDER
!!!ARE: Europa, Mitteleuropa, Deutschland, Hessen, Taunus
!!!SCT: E1714
!!!YEM: Copyright 1995, estate of Helmut Schaffrath.
**kern
*ICvox
*Ivox
*M2/4
*k[f#c#]
*D:
{16d
16f#
=1
8a
8a
8.b
16a
=2
4a
8f#
8r}
=3
{4a
8g
8e
=4
4d
8r}
{16d
16f#
=5
8a
8a
8.b
16a
=6
4a
8f#
8r}
=7
{4a
8g
8e
=8
4d
4r}
=9
{8b
8b
8b
8b
=10
8b
8a
8a
8f#}
=11
{8a
8g
8g
8e
=12
8.a
16g
8f#
8f#}
=13
{4f#
8g
8a
=14
4b
4r}
=15
{4a
8g
8e
=16
4d
8r}
==
!!!AGN: Spott - Lied auf verschiedene Handwerker
!!!ONB: ESAC (Essen Associative Code) Database: ERK3
!!!AMT: simple duple
!!!AIN: vox
!!!EED: Helmut Schaffrath
!!!EEV: 1.0
*-
